public/img/clients/blogto.svg

<svg width="200" height="100" viewBox="0 0 200 100" fill="none" xmlns="http://www.w3.org/2000/svg">
<path d="M49.55 42.9999C48.5142 42.9537 47.482 43.1502 46.5357 43.5738C45.5895 43.9975 44.7553 44.6365 44.1 45.4399V34.3199H35.77V38.9999H37.84V63.2499H43.9V61.1399C44.5589 62.0032 45.4169 62.6942 46.4008 63.1539C47.3846 63.6136 48.4651 63.8284 49.55 63.7799C54.81 63.7799 58.72 59.2199 58.72 53.3699C58.72 47.5199 54.81 42.9999 49.55 42.9999ZM48 57.8999C47.4214 57.9015 46.8486 57.7835 46.3178 57.5533C45.7869 57.3232 45.3093 56.9858 44.9149 56.5623C44.5206 56.1388 44.218 55.6385 44.0261 55.0926C43.8343 54.5467 43.7573 53.967 43.8 53.3899C43.7508 52.8079 43.823 52.2219 44.0119 51.6692C44.2009 51.1165 44.5026 50.609 44.8979 50.1789C45.2931 49.7488 45.7734 49.4055 46.3082 49.1706C46.8431 48.9357 47.4209 48.8145 48.005 48.8145C48.5891 48.8145 49.1669 48.9357 49.7018 49.1706C50.2366 49.4055 50.7169 49.7488 51.1121 50.1789C51.5074 50.609 51.8091 51.1165 51.9981 51.6692C52.187 52.2219 52.2592 52.8079 52.21 53.3899C52.2559 53.9685 52.1807 54.5503 51.9894 55.0982C51.798 55.6462 51.4947 56.1482 51.0987 56.5725C50.7026 56.9968 50.2226 57.3339 49.6891 57.5624C49.1556 57.791 48.5804 57.9059 48 57.8999ZM80.63 42.9999C74.47 42.9999 69.94 47.4199 69.94 53.3799C69.94 59.3399 74.45 63.7799 80.63 63.7799C86.81 63.7799 91.34 59.3599 91.34 53.3799C91.34 47.3999 86.8 42.9999 80.63 42.9999ZM80.63 57.9099C80.048 57.9139 79.4715 57.798 78.9363 57.5694C78.4011 57.3409 77.9187 57.0046 77.519 56.5815C77.1194 56.1585 76.8112 55.6576 76.6135 55.1103C76.4158 54.5629 76.3329 53.9807 76.37 53.3999C76.342 52.8225 76.4316 52.2454 76.6333 51.7036C76.835 51.1617 77.1447 50.6665 77.5435 50.248C77.9423 49.8294 78.4219 49.4962 78.9533 49.2685C79.4847 49.0408 80.0569 48.9234 80.635 48.9234C81.2131 48.9234 81.7853 49.0408 82.3167 49.2685C82.8481 49.4962 83.3277 49.8294 83.7265 50.248C84.1253 50.6665 84.435 51.1617 84.6367 51.7036C84.8384 52.2454 84.928 52.8225 84.9 53.3999C84.9387 53.9815 84.8566 54.5647 84.6588 55.1129C84.4609 55.6611 84.1517 56.1623 83.7505 56.5851C83.3494 57.0079 82.865 57.3429 82.3279 57.5692C81.7909 57.7955 81.2127 57.9081 80.63 57.8999V57.9099ZM107.86 45.5999C107.218 44.7558 106.382 44.0787 105.423 43.6261C104.464 43.1735 103.41 42.9587 102.35 42.9999C97.06 42.9999 93.2 47.3999 93.2 52.9999C93.2 58.5999 97.06 62.9499 102.35 62.9499C103.388 63.0016 104.423 62.8011 105.367 62.3658C106.311 61.9304 107.135 61.2731 107.77 60.4499V61.6699C107.77 64.8099 105.38 66.2199 102.77 66.2199C100.503 66.2496 98.2871 65.5483 96.45 64.2199L94.21 69.2199C96.8934 70.9334 100.027 71.8074 103.21 71.7299C109.67 71.7299 113.91 67.8899 113.91 61.4099V43.5399H107.82V45.5899L107.86 45.5999ZM103.86 57.1999C102.778 57.1472 101.757 56.6801 101.01 55.8954C100.262 55.1107 99.8454 54.0686 99.8454 52.9849C99.8454 51.9013 100.262 50.8592 101.01 50.0745C101.757 49.2898 102.778 48.8227 103.86 48.7699C104.942 48.8227 105.963 49.2898 106.71 50.0745C107.458 50.8592 107.875 51.9013 107.875 52.9849C107.875 54.0686 107.458 55.1107 106.71 55.8954C105.963 56.6801 104.942 57.1472 103.86 57.1999Z" fill="black"/>
<path d="M135.25 34.3199H111.9V40.5399H120.23V63.2499H126.94V40.5399H135.25V34.3199ZM149.4 34.6099C140.72 34.6099 134.58 40.7699 134.58 49.1899C134.58 57.6099 140.72 63.7699 149.4 63.7699C158.08 63.7699 164.23 57.5999 164.23 49.1899C164.23 40.7799 158.08 34.6099 149.4 34.6099ZM149.4 57.3399C144.82 57.3399 141.56 53.9999 141.56 49.1899C141.56 44.3799 144.82 40.9999 149.4 40.9999C153.98 40.9999 157.25 44.3399 157.25 49.1599C157.25 53.9799 154 57.3399 149.4 57.3399ZM59.15 34.3399V38.9999H61.15V63.2499H67.44V34.3199L59.15 34.3399Z" fill="black"/>
</svg>

<svg xmlns="http://www.w3.org/2000/svg" focusable="false" role="img" viewBox="0 0 200 100" fill="currentColor">
  <path d="M49.55 43a6.649 6.649 0 00-5.45 2.44V34.32h-8.33V39h2.07v24.25h6.06v-2.11a6.73 6.73 0 005.65 2.64c5.26 0 9.17-4.56 9.17-10.41 0-5.85-3.91-10.37-9.17-10.37zM48 57.9a4.2 4.2 0 01-4.2-4.51 4.22 4.22 0 118.41 0A4.18 4.18 0 0148 57.9zM80.63 43c-6.16 0-10.69 4.42-10.69 10.38 0 5.96 4.51 10.4 10.69 10.4s10.71-4.42 10.71-10.4S86.8 43 80.63 43zm0 14.91a4.241 4.241 0 01-4.26-4.51 4.27 4.27 0 118.53 0 4.22 4.22 0 01-4.27 4.5v.01zm27.23-12.31a6.6 6.6 0 00-5.51-2.6c-5.29 0-9.15 4.4-9.15 10s3.86 9.95 9.15 9.95a6.44 6.44 0 005.42-2.5v1.22c0 3.14-2.39 4.55-5 4.55a10.55 10.55 0 01-6.32-2l-2.24 5a16 16 0 009 2.51c6.46 0 10.7-3.84 10.7-10.32V43.54h-6.09v2.05l.04.01zm-4 11.6a4.219 4.219 0 010-8.43 4.219 4.219 0 010 8.43z"/>
  <path d="M135.25 34.32H111.9v6.22h8.33v22.71h6.71V40.54h8.31v-6.22zm14.15.29c-8.68 0-14.82 6.16-14.82 14.58s6.14 14.58 14.82 14.58 14.83-6.17 14.83-14.58-6.15-14.58-14.83-14.58zm0 22.73c-4.58 0-7.84-3.34-7.84-8.15 0-4.81 3.26-8.19 7.84-8.19s7.85 3.34 7.85 8.16-3.25 8.18-7.85 8.18zm-90.25-23V39h2v24.25h6.29V34.32l-8.29.02z"/>
</svg>
